X:1
T: The Flower of the Flock
P:Roche version
R:Reel
Q: 232
K:A
M:4/4
L:1/8
|:EA Ac BA AB|cd cB c2 AF|EA Ac BA Ac|ec Bc AB AF|
EA Ac BA AB|cd cB c2 AF|EA Ac BA Ac|ec Bc AB ce|
a2 af e2 ec|dB cA B2 FF|a2 af e2 e2|fg af ba fg|
a2 af e2 ec|dB cA BA FA|EA Ac BA Ac|ed Bc AB AF:|
